assets/Vs button/Flat/vs_button_flat.svg

<svg width="32" height="32" viewBox="0 0 32 32" fill="none" xmlns="http://www.w3.org/2000/svg">
<path d="M2 6C2 3.79086 3.79086 2 6 2H26C28.2091 2 30 3.79086 30 6V26C30 28.2091 28.2091 30 26 30H6C3.79086 30 2 28.2091 2 26V6Z" fill="#FF822D"/>
<path d="M21.6329 10C19.6346 10 17.9981 11.5569 17.9407 13.2907C17.9058 14.344 18.3754 15.1871 19.1223 15.8088C19.8308 16.3985 20.7929 16.7985 21.8448 17.0907C22.7823 17.3512 23.2188 17.7626 23.3932 18.0933C23.5571 18.4041 23.5755 18.8036 23.3274 19.2813C23.1258 19.6696 22.7467 19.9946 22.1927 20.0642C21.6265 20.1354 20.6987 19.9596 19.4073 18.9533C18.9716 18.6138 18.3433 18.6918 18.0038 19.1274C17.6644 19.5631 17.7423 20.1914 18.178 20.5309C19.7268 21.7377 21.1748 22.2078 22.442 22.0486C23.7213 21.8879 24.6333 21.1063 25.1024 20.2029C25.6013 19.242 25.6804 18.1429 25.1623 17.1604C24.6547 16.1977 23.6665 15.521 22.38 15.1637C21.44 14.9026 20.793 14.5972 20.4018 14.2716C20.0491 13.978 19.9284 13.6961 19.9396 13.3569C19.9579 12.8051 20.6064 12 21.6329 12C22.0092 12 22.4536 12.1435 22.8979 12.3804C23.3346 12.6132 23.688 12.8917 23.8592 13.0539C24.2601 13.4337 24.893 13.4166 25.2729 13.0157C25.6527 12.6147 25.6356 11.9818 25.2346 11.602C24.9385 11.3214 24.4399 10.936 23.8389 10.6156C23.2454 10.2992 22.4664 10 21.6329 10Z" fill="white"/>
<path d="M8.36978 10.6538C8.16995 10.1389 7.59058 9.88355 7.07571 10.0834C6.56084 10.2832 6.30545 10.8626 6.50527 11.3774L10.3803 21.3618C10.5286 21.744 10.8952 21.9969 11.3051 22C11.715 22.003 12.0853 21.7556 12.2393 21.3756L16.2862 11.3913C16.4936 10.8794 16.2469 10.2963 15.735 10.0889C15.2232 9.8814 14.6401 10.1281 14.4326 10.64L11.3327 18.2881L8.36978 10.6538Z" fill="white"/>
</svg>

<svg xmlns="http://www.w3.org/2000/svg" width="32" height="32" fill="none"><path fill="#FF822D" d="M2 6a4 4 0 0 1 4-4h20a4 4 0 0 1 4 4v20a4 4 0 0 1-4 4H6a4 4 0 0 1-4-4V6Z"/><path fill="#fff" d="M21.633 10c-1.998 0-3.635 1.557-3.692 3.29-.035 1.054.434 1.897 1.181 2.519.709.59 1.67.99 2.723 1.282.937.26 1.374.672 1.548 1.002.164.311.183.71-.066 1.188-.201.389-.58.714-1.134.783-.567.071-1.494-.104-2.786-1.11a1 1 0 1 0-1.229 1.577c1.549 1.207 2.997 1.677 4.264 1.518a3.452 3.452 0 0 0 2.66-1.846c.5-.961.578-2.06.06-3.043-.507-.962-1.495-1.639-2.782-1.996-.94-.261-1.587-.567-1.978-.892-.353-.294-.474-.576-.462-.915.018-.552.666-1.357 1.693-1.357.376 0 .82.143 1.265.38.437.233.79.512.961.674a1 1 0 0 0 1.376-1.452 6.717 6.717 0 0 0-1.396-.986c-.594-.317-1.373-.616-2.206-.616ZM8.37 10.654a1 1 0 1 0-1.865.723l3.875 9.985a1 1 0 0 0 1.86.014l4.046-9.985a1 1 0 0 0-1.853-.751l-3.1 7.648-2.963-7.634Z"/></svg>
